public/icons/premium-package-icon.svg

<svg width="19" height="19" viewBox="0 0 19 19" fill="none" xmlns="http://www.w3.org/2000/svg">
<path fill-rule="evenodd" clip-rule="evenodd" d="M8.51459 13.0467C9.06399 13.5782 9.93592 13.5782 10.4853 13.0467C10.7995 12.7428 11.2364 12.6009 11.6692 12.6621C12.4261 12.7692 13.1315 12.2566 13.2635 11.5037C13.3391 11.0732 13.6091 10.7016 13.9952 10.4967C14.6705 10.1384 14.9399 9.30915 14.6042 8.62239C14.4122 8.22967 14.4122 7.77033 14.6042 7.37761C14.9399 6.69085 14.6705 5.8616 13.9952 5.50332C13.6091 5.29845 13.3391 4.92684 13.2635 4.49628C13.1315 3.74336 12.4261 3.23085 11.6692 3.33791C11.2364 3.39913 10.7995 3.25718 10.4853 2.95325C9.93592 2.42175 9.06399 2.42175 8.51459 2.95325C8.20041 3.25718 7.76356 3.39913 7.33074 3.33791C6.57385 3.23085 5.86844 3.74336 5.73637 4.49628C5.66084 4.92684 5.39085 5.29845 5.00471 5.50332C4.32945 5.8616 4.06001 6.69085 4.39572 7.37761C4.58769 7.77033 4.58769 8.22967 4.39572 8.62239C4.06001 9.30915 4.32945 10.1384 5.00471 10.4967C5.39085 10.7016 5.66084 11.0732 5.73637 11.5037C5.86844 12.2566 6.57385 12.7692 7.33074 12.6621C7.76356 12.6009 8.20041 12.7428 8.51459 13.0467ZM8.99048 6.47154C8.83012 6.95262 8.45262 7.33012 7.97154 7.49048C7.48193 7.65369 7.48193 8.34623 7.97154 8.50943C8.45262 8.66979 8.83012 9.0473 8.99048 9.52838C9.15369 10.018 9.84623 10.018 10.0094 9.52838C10.1698 9.0473 10.5473 8.66979 11.0284 8.50943C11.518 8.34623 11.518 7.65369 11.0284 7.49048C10.5473 7.33012 10.1698 6.95262 10.0094 6.47154C9.84623 5.98193 9.15369 5.98193 8.99048 6.47154Z" fill="#475367"/>
<path d="M11.2325 13.5087L10.1708 14.0395C9.74853 14.2507 9.25147 14.2507 8.82918 14.0395L7.76747 13.5087C7.57786 13.4139 7.34903 13.5172 7.29469 13.7221C7.26502 13.8339 7.25 13.9492 7.25 14.0649V16.5517C7.25 17.3853 8.32235 17.7245 8.80175 17.0425C9.14167 16.559 9.85832 16.559 10.1982 17.0425C10.6777 17.7245 11.75 17.3853 11.75 16.5517V14.0649C11.75 13.9492 11.735 13.8339 11.7053 13.7221C11.651 13.5172 11.4221 13.4139 11.2325 13.5087Z" fill="#475367"/>
</svg>

<svg xmlns="http://www.w3.org/2000/svg" width="19" height="19" fill="none"><path fill="#475367" fill-rule="evenodd" d="M8.515 13.047c.549.531 1.42.531 1.97 0a1.42 1.42 0 0 1 1.184-.385 1.417 1.417 0 0 0 1.595-1.158c.075-.43.345-.802.731-1.007a1.417 1.417 0 0 0 .61-1.875 1.42 1.42 0 0 1 0-1.244 1.417 1.417 0 0 0-.61-1.875 1.42 1.42 0 0 1-.731-1.007 1.417 1.417 0 0 0-1.595-1.158c-.433.061-.87-.08-1.184-.385a1.417 1.417 0 0 0-1.97 0 1.42 1.42 0 0 1-1.184.385 1.417 1.417 0 0 0-1.595 1.158c-.075.43-.345.802-.731 1.007a1.417 1.417 0 0 0-.61 1.875c.193.392.193.852 0 1.244a1.417 1.417 0 0 0 .61 1.875c.386.205.656.576.731 1.007a1.417 1.417 0 0 0 1.595 1.158c.433-.061.87.08 1.184.385m.475-6.575c-.16.48-.537.858-1.018 1.018a.537.537 0 0 0 0 1.02c.48.16.858.537 1.018 1.018.164.49.856.49 1.02 0 .16-.48.537-.858 1.018-1.019a.537.537 0 0 0 0-1.019 1.61 1.61 0 0 1-1.019-1.018.537.537 0 0 0-1.019 0" clip-rule="evenodd"/><path fill="#475367" d="m11.233 13.509-1.062.53a1.5 1.5 0 0 1-1.342 0l-1.062-.53a.334.334 0 0 0-.472.213q-.045.168-.045.343v2.487c0 .833 1.072 1.172 1.552.49a.854.854 0 0 1 1.396 0c.48.682 1.552.343 1.552-.49v-2.487q0-.175-.045-.343a.334.334 0 0 0-.473-.213"/></svg>
